ui/src/assets/icons/items/planks.svg

<svg xmlns="http://www.w3.org/2000/svg" viewBox="0 0 512 512"><path d="M0 0h512v512H0z"/><path fill="#fff" d="M360.602 74.52 63.272 349.44h54.5l42.94-37.573 2.683 37.572h13.468l113.14-123.354c.983-12.407 6.178-21.43 13.087-26.443 6.91-5.017 13.84-6.686 19.08-8.633l62.687-68.35 13.266 12.168-65.516 71.434-1.826.76c-7.4 3.094-13.675 4.69-17.116 7.19-3.44 2.497-5.765 5.124-5.875 15.702l-.036 3.447-106.467 116.08h33.736L471.098 74.52h-72.37l.637.644-193.668 191.188c-1.248 8.702-6.653 15.696-12.613 20.435-6.888 5.477-14.79 9.182-21.656 12.89l-8.555-15.835c7.352-3.972 14.477-7.54 19.008-11.143 4.532-3.603 6.167-6.01 6.102-10.253l-.058-3.843L374.394 74.52h-13.792zm99.843 40.25L243.357 367.58H225.13l-47.71 49.975-13.02-12.43 35.846-37.545h-53.742l-1.287-18.05-20.63 18.05h-18.04l-73.12 69.89h29.778c12.26-14.002 18.418-24.828 27.223-34.67 9.07-10.14 21.11-18.166 41.988-23.89l4.76 17.36c-18.702 5.126-26.09 10.433-33.332 18.53-5.058 5.653-10.032 13.24-17.342 22.67H210.28l271.43-322.7h-21.265zM129.97 403.682a9 9 0 0 1 8.202 13.287c-1.728 3.296-3.94 7.49-8.033 11.182-4.094 3.692-10.005 6.357-17.07 7.06a9 9 0 1 1-1.78-17.913c4.02-.4 5.47-1.32 6.792-2.513 1.32-1.192 2.576-3.18 4.147-6.176a9 9 0 0 1 7.74-4.928z"/></svg>

<svg xmlns="http://www.w3.org/2000/svg" viewBox="0 0 512 512">
    <path d="M0 0h512v512H0z" />
    <!-- Main plank bodies -->
    <path data-channel="wood" fill="#fff"
        d="M360.602 74.52L63.272 349.44H117.772L160.712 311.867 163.395 349.439H176.863L290.003 226.085C290.986 213.678 296.181 204.655 303.09 199.642 310 194.625 316.93 192.956 322.17 191.009L384.857 122.659 398.123 134.827 332.607 206.261 330.781 207.021C323.381 210.115 317.106 211.711 313.665 214.211 310.225 216.708 307.9 219.335 307.79 229.913L307.754 233.36 201.287 349.44H235.023L471.098 74.52H398.728L399.365 75.164 205.697 266.352C204.449 275.054 199.044 282.048 193.084 286.787 186.196 292.264 178.294 295.969 171.428 299.677L162.873 283.842C170.225 279.87 177.35 276.302 181.881 272.699 186.413 269.096 188.048 266.689 187.983 262.446L187.925 258.603 374.394 74.52H360.602Z" />
    <!-- Secondary plank details -->
    <path data-channel="wood" fill="#fff"
        d="M460.445 114.77L243.357 367.58H225.13L177.42 417.555 164.4 405.125 200.246 367.58H146.504L145.217 349.53 124.587 367.58H106.547L33.427 437.47H63.205C75.465 423.468 81.623 412.642 90.428 402.8 99.498 392.66 111.538 384.634 132.416 378.91L137.176 396.27C118.474 401.396 111.086 406.703 103.844 414.8 98.786 420.453 93.812 428.04 86.502 437.47H210.28L481.71 114.77H460.445Z" />
    <!-- Wood grain detail -->
    <path data-channel="grain" fill="#fff"
        d="M129.97 403.682A9 9 0 0 1 138.172 416.969C136.444 420.265 134.232 424.459 130.139 428.151 126.045 431.843 120.134 434.508 113.069 435.211A9 9 0 1 1 111.289 417.298C115.309 416.898 116.759 415.978 118.081 414.785 119.401 413.593 120.657 411.605 122.228 408.609A9 9 0 0 1 129.968 403.681Z" />
</svg>
